X: 22606
T: Lady On The Island, The
R: reel
M: 4/4
K: Dmajor
BAFB AFEF|D2FA BAdB|BAFB AFAB|dzfd efdB|
BAFB AFEF|D2FA BAdB|BAFB AFAB|dzfd edBc|
d2fd efgb|afdf edBc|dzfd efga|beaf ~e3f|
d2fd efgb|afdf efdz|defg adfb|afdf e2dB|

